X: 1445
T: Ne Zaman Görsem Onu
C: Sadettin Kaynak
O: Turkey
F: http://compmusic.upf.edu/node/140
N: muhayyer--sarki--sofyan--ne_zaman--sadettin_kaynak
N: makam= muhayyer
N: form= sarki
N: usul= sofyan = 4/4
M: 4/4
L: 1/16
K: C _2/4B ^3/4f  
Q: 1/4=72
%%MIDI tuningsystem comma53
z2fg a2a2 a_1/4bga fgef  | d2Bc d2d2 dccB d2z2  | 
w:   |   | 
z2fg a2a2 a_1/4bga fgef  | d2Bc d2d2 dccB d2z2  | 
w:   |   | 
z2cd e2ed dggd dccB  | A2AB c2cB cdBA A4  | 
w:   |   | 
z2cd e2ed dggd dccB  | A2AB c2cB cdBA A4  | 
w:   |   | 
z2fg a2a2 a2z2 a2a2  | fga4a2 a2a2 ac'a2  | \
w:  Ne  za man  gör sem  o nu   |  a *  yak la rım  do la *  şır    | 
g2fg e2d2 c'c'ba gfg2  | 
w:  do *  *  la şır  do *  *  *  la *  şır   | 
zg2f gfgf gfge e3d  | gfga gfed cBcd cBA2  | 
w:  do *  la *  şır  *  vay  *  vay    |  SAZ  | 
z2fg a2a2 a2z2 a2a2  | fga4a2 a2a2 ac'a2  | \
w:  Ne  za man  gör sem  o nu   |  a *  yak la rım  do la *  şır    | 
g2fg e2d2 c'c'ba gfg2  | 
w:  do *  *  la şır  do *  *  *  la *  şır   | 
zg2f gfgf gfge e3d  | gfga gfed defg aga2  | 
w:  do *  la *  şır  *  vay  *  vay    |  SAZ  | 
z2fg a2ag gfga gfed  | gfge edd2 dccB d2d2  | 
w:  Gü le rek  se *  lam  *  *  *  ve *  rir   |  ça *  bu *  cak  *  u zak *  *  *  la şır    | 
z2AB c2cB cBcd cBA2  | e2dc cBBA A2A6  | 
w:  ça bu cak  u *  zak *  *  *  la *  şır   |  es *  *  me *  rim  *  vay  vay    | 
gfga gfed defg aga2  | z2fg a2ag gfga gfed  | 
w:  SAZ  |  Gü le rek  se *  lam  *  *  *  ve *  rir   | 
gfge edd2 dccB d2d2  | z2AB c2cB cBcd cBA2  | 
w:  ça *  bu *  cak  *  u zak *  *  *  la şır    |  ça bu cak  u *  zak *  *  *  la *  şır   | 
e2dc cBBA A2A6  | gfga gfed edef gfg2  | 
w:  es *  *  me *  rim  *  vay  vay    |  SAZ  | 
z2ef g2g2 g3f gfg2  | z2ef g2a2 g2fg e2d2  | \
w:  O  gü zel  en da *  mı *  na   |  ne  gi yer se  ya *  *  ra şır    | 
g2fg e2d2 c'c'ba gfg2  | 
w:  ya *  *  ra şır  ya *  *  *  ra *  şır   | 
zg2f gfgf gfge e3d  | z2ef g2g2 g3f gfg2  | 
w:  ya *  ra *  şır  *  vay  *  vay    |  O  gü zel  en da *  mı *  na   | 
z2ef g2a2 g2fg e2d2  | g2fg e2d2 c'c'ba gfg2  | 
w:  ne  gi yer se  ya *  *  ra şır    |  ya *  *  ra şır  ya *  *  *  ra *  şır   | 
zg2f gfgf gfge e3d  | gfga gfed defg aga2  | 
w:  ya *  ra *  şır  *  vay  *  vay    |  SAZ  | 
z2fg a2ag gfga gfed  | gfge edd2 dccB d2d2  | 
w:  Gü le rek  se *  lam  *  *  *  ve *  rir   |  ça *  bu *  cak  *  u zak *  *  *  la şır    | 
z2AB c2cB cBcd cBA2  | e2dc cBBA A2A6  | 
w:  ça bu cak  u *  zak *  *  *  la *  şır   |  es *  *  me *  rim  *  vay  vay    | 
|


